X:1
T:THE CORNFLOWER
M:6/8
Q:1/4=120
K:Bb
F6|B2BBAG|F2ED2F|B2Bc2A|B5F|B2BBAG|F2ED2F|
B2Bc2A|B5F|B2cd2e|f2dB2c|d2ddcB|c5F|B2cd2e|
f2dB2c|d2ddcB|c5F|B2BBAG|F2ED2F|B2Bc2A|B37/8||
